X:2715
T:Casey's, Bobby
M:C|
L:1/8
K:A Dorian
ed|cAAB cBcd|eaaf gedB|c2cA B2Bc|d2de dBGB|!
AGAB cBcd|eaaf gedB|cAAc dBGB|BAAG A2:|!
cd|eaab aged|eaab aged|egga gedB|egga gedB|!
AGAB cBcd|eaaf gedB|cAAc dBGB|BAAG A2:|!


